X:256
M:3/2
L:1/4
K:D
D2 | F A d2 A2 | B d A2 G2 | F D D2 C2 | D4 D2 | F A d2 A2 | B d A2 G2 | F D D2 C2 | D4 E2 | F D !fermata!D2 E2 | F D !fermata!D2 E2 | F A d2 d2 | d4 D2 | F A d2 A2 | B d A2 !sintro!G2 | F D D2 C2 | D6 !eintro!|]
